img/cucumber.svg

<svg width="40" height="40" viewBox="0 0 40 40" fill="none" xmlns="http://www.w3.org/2000/svg">
<path d="M39.4517 13.7811C39.8826 12.0964 39.7892 10.3849 39.186 8.94897C38.8345 8.11215 38.3288 7.41024 37.7059 6.8755L38.0213 5.28099C38.1602 4.579 38.4973 3.93076 38.9962 3.40634C39.4923 2.88481 39.4987 2.09259 39.0109 1.56356L37.8815 0.33863C37.6527 0.0906761 37.3137 -0.0332227 36.9736 0.00779048C36.6339 0.0486474 36.3357 0.249026 36.1759 0.543774L35.6806 1.45684C35.2938 2.17008 34.9636 2.91394 34.692 3.67687C34.4533 3.18783 34.1125 2.6845 33.6114 2.24484C33.8124 1.78151 33.9855 1.27326 34.1247 0.727122C34.2048 0.413079 34.0082 0.0952852 33.6857 0.0173212C33.3634 -0.0604086 33.037 0.130752 32.9568 0.444874C32.8582 0.831647 32.7383 1.19905 32.6016 1.54129C31.2781 0.818601 29.6625 0.601427 28.6698 1.37997C27.9907 1.91244 27.5288 3.01574 27.9314 3.94045C28.3301 4.85617 29.4193 5.25451 30.2641 5.23529C31.2981 5.21287 32.277 4.51494 33.0344 3.33603C33.5435 3.8649 33.9115 4.72852 33.9538 5.64511C32.9329 5.66519 31.8932 5.9154 30.9041 6.39334C29.3357 7.15119 27.9842 8.42057 27.0968 9.97079C26.5245 10.9853 25.8962 11.9855 25.2284 12.9458C24.9811 12.8862 24.7204 12.878 24.4655 12.9228C23.7148 13.0547 23.1305 13.6363 23.0116 14.3702C22.9446 14.7841 23.0264 15.1979 23.2425 15.5504C21.8305 17.2447 20.2574 18.8283 18.5647 20.2592C18.3138 20.4713 18.2869 20.8413 18.5047 21.0857C18.7225 21.3301 19.1026 21.3563 19.3534 21.1441C21.139 19.6347 22.7956 17.9605 24.2772 16.1678C24.5546 15.8321 24.5654 15.3482 24.3034 14.991C24.2383 14.9022 24.1676 14.7542 24.2002 14.5529C24.2388 14.3148 24.4357 14.1187 24.679 14.076C24.7862 14.0571 24.8903 14.0644 24.9883 14.0973C25.4126 14.2399 25.8879 14.0837 26.1445 13.7177C26.8631 12.6925 27.5383 11.6217 28.1497 10.5382C29.5224 8.13996 32.0558 6.69614 34.4156 6.82871C34.204 6.98886 33.9915 7.14728 33.7782 7.30181C32.9487 7.90474 32.2082 8.62438 31.5719 9.44441C31.4685 9.42644 31.3624 9.41652 31.2538 9.41652C30.2584 9.41652 29.4485 10.2052 29.4485 11.1746C29.4485 11.5873 29.5957 11.9671 29.8411 12.2674C27.9818 15.4289 25.6999 18.3327 23.0497 20.9101C22.8443 20.8308 22.6208 20.7867 22.3868 20.7867C21.3914 20.7867 20.5815 21.5754 20.5815 22.5448C20.5815 22.7247 20.6095 22.8984 20.6613 23.062C16.3759 26.6337 11.4833 29.2931 6.11124 30.9683C4.50327 31.4713 3.02269 32.3153 1.82888 33.4095C1.6358 33.587 1.43879 33.7632 1.24017 33.9383C1.51539 31.6528 3.41511 29.4733 6.07626 28.574C6.74977 28.3509 7.43034 28.1049 8.09936 27.8429C8.53182 27.6736 8.78996 27.2273 8.71319 26.7818C8.70541 26.7368 8.70324 26.6906 8.70661 26.6442C8.72851 26.3464 8.99588 26.1024 9.30263 26.1004C9.49026 26.0983 9.66 26.1792 9.776 26.3203C10.065 26.6713 10.5788 26.7785 10.9976 26.5754C13.1488 25.532 15.2153 24.2903 17.1398 22.8847C17.4055 22.6906 17.4594 22.3233 17.2601 22.0644C17.0607 21.8056 16.6837 21.7531 16.4178 21.9473C14.5926 23.2804 12.6356 24.4615 10.5989 25.4593C10.2571 25.1168 9.79019 24.9275 9.29413 24.9286C8.35846 24.935 7.57321 25.6519 7.50639 26.5606C7.50021 26.6444 7.50021 26.7284 7.50639 26.8119C6.90411 27.045 6.29309 27.2644 5.68528 27.4659C3.96693 28.0466 2.44857 29.1223 1.40991 30.4949C0.307552 31.9517 -0.173275 33.6576 0.0558276 35.2966C0.0565496 35.3017 0.0575924 35.3067 0.0583144 35.3117C0.0585551 35.3129 0.0584748 35.3142 0.0587155 35.3154C0.0588759 35.3165 0.059277 35.3175 0.0595177 35.3186C0.251319 36.6724 1.06336 37.89 2.34926 38.7491C3.58269 39.573 5.11397 40 6.74055 40C7.47486 40 8.22859 39.913 8.98304 39.7361C9.30608 39.6604 9.50494 39.3439 9.42721 39.0294C9.3494 38.7148 9.02443 38.5211 8.70148 38.5969C6.63755 39.0806 4.51739 38.7763 3.02999 37.7828C2.37469 37.3451 1.87934 36.7953 1.57331 36.1812C1.88183 36.2894 2.19147 36.3948 2.50063 36.4958C3.33 36.7686 4.2185 36.9048 5.1236 36.9048C6.05445 36.9048 7.00294 36.7607 7.92248 36.4726C8.3287 36.346 8.73701 36.2126 9.14147 36.0748C9.47285 36.4504 9.96355 36.6891 10.5108 36.6891C11.5062 36.6891 12.3161 35.9004 12.3161 34.931C12.3161 34.9101 12.3152 34.8894 12.3145 34.8687C14.4521 33.9696 16.5346 32.9128 18.5174 31.7206C18.8287 31.9685 19.2261 32.1176 19.6586 32.1176C20.654 32.1176 21.4639 31.3289 21.4639 30.3595C21.4639 30.1827 21.4367 30.0121 21.3867 29.8511C24.9609 27.3402 28.1574 24.3707 30.8995 21.0137C31.0744 21.0689 31.2609 21.0991 31.4545 21.0991C32.4499 21.0991 33.2598 20.3104 33.2598 19.341C33.2598 18.967 33.1389 18.6202 32.9336 18.3349C33.7919 17.115 34.5979 15.8454 35.3322 14.5541C35.4932 14.271 35.3881 13.9145 35.0974 13.7577C34.8066 13.601 34.4406 13.7034 34.2796 13.9865C33.5678 15.2383 32.7868 16.4691 31.9554 17.6523C31.7962 17.6074 31.6282 17.5829 31.4544 17.5829C30.459 17.5829 29.6492 18.3716 29.6492 19.341C29.6492 19.6954 29.7577 20.0253 29.9437 20.3016C27.2711 23.5703 24.1564 26.4617 20.6742 28.9068C20.3847 28.7143 20.035 28.6015 19.6587 28.6015C18.6633 28.6015 17.8534 29.3902 17.8534 30.3596C17.8534 30.483 17.8666 30.6035 17.8916 30.7198C15.9673 31.8773 13.9465 32.9041 11.8723 33.7785C11.5411 33.408 11.0538 33.1731 10.511 33.1731C9.51553 33.1731 8.70565 33.9618 8.70565 34.9312C8.70565 34.9475 8.70645 34.9636 8.70693 34.9798C8.32429 35.1098 7.93949 35.2372 7.55492 35.3571C6.0068 35.842 4.30489 35.8525 2.88463 35.3854C2.52534 35.268 2.16548 35.1453 1.80787 35.0183C2.09497 34.7692 2.3779 34.5167 2.65441 34.2625C3.7181 33.2874 5.04081 32.5341 6.47888 32.0843C11.9779 30.3696 16.989 27.6522 21.3818 24.0046C21.6693 24.1931 22.0152 24.3031 22.387 24.3031C23.3824 24.3031 24.1923 23.5144 24.1923 22.545C24.1923 22.2316 24.1073 21.9374 23.9591 21.6823C26.6486 19.0567 28.9673 16.1033 30.8615 12.8906C30.9879 12.918 31.1192 12.933 31.254 12.933C32.2494 12.933 33.0593 12.1442 33.0593 11.1749C33.0593 10.7397 32.8958 10.3413 32.6259 10.034C33.1724 9.35114 33.7996 8.74875 34.4974 8.24159C34.8029 8.02028 35.1076 7.79264 35.4094 7.56046C35.4757 7.9256 35.5374 8.29237 35.5938 8.65797C35.7399 9.59237 35.6665 10.6093 35.3815 11.599C35.2917 11.9106 35.4784 12.234 35.7983 12.3214C35.8526 12.3363 35.9073 12.3434 35.9611 12.3434C36.224 12.3434 36.4656 12.1742 36.54 11.9155C36.8708 10.7668 36.955 9.57933 36.7835 8.48275C36.7348 8.16746 36.6818 7.85115 36.6258 7.53546C38.2246 8.6629 38.9343 11.0984 38.2571 13.6008C38.1591 13.9628 38.2864 14.3526 38.5815 14.5938C38.7327 14.7173 38.8105 14.8988 38.795 15.0917C38.7753 15.3366 38.5889 15.5502 38.3416 15.6111C38.2684 15.6291 38.1979 15.6337 38.1259 15.6252C37.7179 15.5768 37.3243 15.7677 37.1237 16.1118C34.6442 20.3659 31.5321 24.2271 27.874 27.5884C27.5103 27.9226 27.4529 28.4553 27.7373 28.855C27.7958 28.9371 27.861 29.0738 27.8395 29.2581C27.8077 29.5314 27.5702 29.7523 27.2871 29.7721C27.1249 29.7833 26.9686 29.7327 26.8474 29.6294C26.4694 29.307 25.9179 29.2977 25.5361 29.6073C23.0734 31.605 20.4022 33.3815 17.5967 34.8877C17.1913 35.1054 16.9916 35.5595 17.1108 35.992C17.132 36.069 17.1366 36.1497 17.1243 36.2317C17.0874 36.479 16.8774 36.685 16.6252 36.7216C16.4097 36.7528 16.1998 36.675 16.0641 36.5133C15.7732 36.1668 15.2747 36.061 14.852 36.2563C13.6767 36.7989 12.4666 37.3027 11.2555 37.7537C10.9451 37.8692 10.7896 38.2078 10.9084 38.5102C11 38.7436 11.2283 38.887 11.4704 38.887C11.5418 38.887 11.6144 38.8745 11.6852 38.8482C12.8819 38.4027 14.0775 37.9068 15.2412 37.3734C15.6459 37.777 16.2185 37.9654 16.8028 37.8806C17.58 37.7677 18.2018 37.159 18.3151 36.4002C18.3431 36.213 18.3407 36.0264 18.3082 35.8436C21.0855 34.3423 23.7325 32.5823 26.1807 30.6092C26.5245 30.8539 26.9425 30.9709 27.3731 30.941C28.2387 30.8806 28.9377 30.2283 29.0351 29.3901C29.078 29.0211 29.0014 28.6511 28.8184 28.3316C32.4814 24.9445 35.6051 21.0661 38.1066 16.7991C38.284 16.808 38.4615 16.7905 38.6365 16.7473C39.3885 16.5621 39.9343 15.9335 39.9945 15.1832C40.0366 14.6588 39.8351 14.1438 39.4517 13.7811V13.7811ZM30.2373 4.0638C29.8601 4.07223 29.2178 3.8931 29.0392 3.48305C28.8741 3.10393 29.1064 2.54194 29.4243 2.29265C29.6352 2.12727 29.9316 2.05095 30.2718 2.05095C30.8202 2.05095 31.4821 2.24945 32.0816 2.59349C31.5359 3.49078 30.8691 4.05005 30.2373 4.0638ZM31.4543 18.7546C31.7863 18.7546 32.0564 19.0177 32.0564 19.3409C32.0564 19.6642 31.7863 19.9272 31.4543 19.9272C31.1224 19.9272 30.8524 19.6642 30.8524 19.3409C30.8524 19.0177 31.1225 18.7546 31.4543 18.7546ZM19.6585 29.7731C19.9905 29.7731 20.2606 30.0361 20.2606 30.3594C20.2606 30.6827 19.9905 30.9457 19.6585 30.9457C19.3266 30.9457 19.0565 30.6827 19.0565 30.3594C19.0565 30.0361 19.3266 29.7731 19.6585 29.7731V29.7731ZM10.5107 34.3446C10.8427 34.3446 11.1127 34.6077 11.1127 34.9309C11.1127 35.2542 10.8427 35.5172 10.5107 35.5172C10.1788 35.5172 9.90868 35.2542 9.90868 34.9309C9.90868 34.6077 10.1788 34.3446 10.5107 34.3446ZM22.3868 23.1312C22.0549 23.1312 21.7848 22.8681 21.7848 22.5449C21.7848 22.2216 22.0549 21.9586 22.3868 21.9586C22.7188 21.9586 22.9889 22.2216 22.9889 22.5449C22.9889 22.8681 22.7188 23.1312 22.3868 23.1312ZM31.2538 11.761C30.9218 11.761 30.6518 11.498 30.6518 11.1747C30.6518 10.8514 30.9218 10.5884 31.2538 10.5884C31.5857 10.5884 31.8558 10.8514 31.8558 11.1747C31.8558 11.498 31.5857 11.761 31.2538 11.761ZM36.7445 2.00416L37.1355 1.28342L38.1155 2.34632C38.1853 2.42202 38.1843 2.5353 38.1134 2.6099C37.4616 3.29509 37.0211 4.14207 36.8397 5.05921L36.6196 6.17203C36.2803 6.01493 35.8741 5.86924 35.3119 5.75862L35.5474 4.93468C35.837 3.92084 36.2398 2.9348 36.7445 2.00416V2.00416Z" fill="#FF7010"/>
</svg>

<svg width="40" height="40" fill="none" xmlns="http://www.w3.org/2000/svg"><path d="M39.452 13.781c.43-1.685.337-3.396-.266-4.832a5.528 5.528 0 0 0-1.48-2.074l.315-1.594c.14-.702.476-1.35.975-1.875a1.335 1.335 0 0 0 .015-1.842L37.88.339a1.063 1.063 0 0 0-1.705.205l-.495.913a15.716 15.716 0 0 0-.989 2.22 4.519 4.519 0 0 0-1.08-1.432c.2-.463.373-.972.513-1.518a.585.585 0 0 0-.44-.71.603.603 0 0 0-.728.428 8.866 8.866 0 0 1-.355 1.096c-1.324-.722-2.94-.94-3.932-.161-.68.532-1.141 1.636-.739 2.56.4.916 1.488 1.315 2.333 1.295 1.034-.022 2.013-.72 2.77-1.899.51.529.877 1.393.92 2.31a7.35 7.35 0 0 0-3.05.747c-1.568.758-2.92 2.028-3.807 3.578a37.52 37.52 0 0 1-1.869 2.975 1.876 1.876 0 0 0-.763-.023 1.772 1.772 0 0 0-1.453 1.447c-.067.414.014.828.23 1.18a38.237 38.237 0 0 1-4.677 4.71.575.575 0 0 0-.06.826c.218.244.598.27.848.058a39.407 39.407 0 0 0 4.924-4.976.957.957 0 0 0 .026-1.177.57.57 0 0 1-.103-.438.591.591 0 0 1 .479-.477.622.622 0 0 1 .31.021c.424.143.899-.013 1.155-.38a38.701 38.701 0 0 0 2.006-3.179c1.372-2.398 3.906-3.842 6.266-3.71-.212.16-.424.32-.638.474-.83.603-1.57 1.322-2.206 2.142a1.855 1.855 0 0 0-.318-.027c-.996 0-1.806.788-1.806 1.758 0 .412.148.792.393 1.092a41.163 41.163 0 0 1-6.791 8.643 1.837 1.837 0 0 0-.663-.123c-.996 0-1.806.788-1.806 1.758 0 .18.029.353.08.517a42.238 42.238 0 0 1-14.55 7.906A11.403 11.403 0 0 0 1.83 33.41c-.193.177-.39.353-.589.528.275-2.285 2.175-4.465 4.836-5.364a40.48 40.48 0 0 0 2.023-.731.974.974 0 0 0 .614-1.061.567.567 0 0 1-.006-.138.606.606 0 0 1 1.069-.324 1.02 1.02 0 0 0 1.222.255 40.143 40.143 0 0 0 6.142-3.69.576.576 0 0 0 .12-.82.612.612 0 0 0-.842-.118 38.923 38.923 0 0 1-5.82 3.512 1.828 1.828 0 0 0-1.304-.53c-.936.006-1.72.723-1.788 1.632a1.705 1.705 0 0 0 0 .25 39.49 39.49 0 0 1-1.82.655c-1.72.58-3.237 1.656-4.276 3.029C.308 31.952-.173 33.658.056 35.297l.002.015v.003l.002.004c.191 1.353 1.003 2.571 2.29 3.43C3.582 39.573 5.113 40 6.74 40c.735 0 1.489-.087 2.243-.264a.585.585 0 0 0 .444-.707.603.603 0 0 0-.726-.432c-2.063.484-4.184.18-5.671-.814-.655-.438-1.15-.988-1.457-1.602.309.108.618.214.928.315.829.273 1.717.409 2.623.409.93 0 1.879-.144 2.798-.432.407-.127.815-.26 1.22-.398.33.375.822.614 1.369.614.995 0 1.805-.789 1.805-1.758 0-.02 0-.042-.002-.062 2.138-.9 4.22-1.956 6.203-3.148.312.247.71.397 1.142.397.995 0 1.805-.79 1.805-1.759a1.71 1.71 0 0 0-.077-.508 47.597 47.597 0 0 0 9.512-8.837c.175.055.362.085.555.085.996 0 1.806-.789 1.806-1.758 0-.374-.121-.72-.326-1.006a46.773 46.773 0 0 0 2.398-3.78.578.578 0 0 0-.235-.797.61.61 0 0 0-.817.229 45.618 45.618 0 0 1-2.325 3.665 1.843 1.843 0 0 0-.5-.07c-.996 0-1.806.79-1.806 1.759 0 .354.109.684.295.96a46.408 46.408 0 0 1-9.27 8.606 1.83 1.83 0 0 0-1.015-.305c-.996 0-1.806.788-1.806 1.758 0 .123.014.244.039.36a47.504 47.504 0 0 1-6.02 3.059 1.822 1.822 0 0 0-1.361-.606c-.995 0-1.805.789-1.805 1.758v.049c-.382.13-.767.257-1.151.377-1.548.485-3.25.495-4.67.028-.36-.117-.72-.24-1.077-.367.287-.249.57-.501.846-.755a10.18 10.18 0 0 1 3.825-2.179 43.442 43.442 0 0 0 14.903-8.08c.287.19.633.3 1.005.3.995 0 1.805-.79 1.805-1.759 0-.313-.085-.608-.233-.863a42.333 42.333 0 0 0 6.902-8.791c.127.027.258.042.393.042.995 0 1.805-.789 1.805-1.758 0-.435-.163-.834-.433-1.141a9.71 9.71 0 0 1 1.871-1.792c.306-.222.61-.45.912-.682.067.366.128.732.185 1.098.146.934.072 1.951-.212 2.941a.584.584 0 0 0 .416.722.6.6 0 0 0 .742-.406c.33-1.148.415-2.336.243-3.432a43.085 43.085 0 0 0-.157-.948c1.599 1.128 2.308 3.563 1.631 6.066a.962.962 0 0 0 .325.993.576.576 0 0 1 .213.498.597.597 0 0 1-.67.533 1.016 1.016 0 0 0-1.001.487 49.28 49.28 0 0 1-9.25 11.476.953.953 0 0 0-.137 1.267.57.57 0 0 1 .103.403.599.599 0 0 1-.553.514.609.609 0 0 1-.44-.143 1.026 1.026 0 0 0-1.31-.022 50.698 50.698 0 0 1-7.94 5.28.962.962 0 0 0-.486 1.105.576.576 0 0 1 .013.24.598.598 0 0 1-.499.49.611.611 0 0 1-.56-.209 1.023 1.023 0 0 0-1.213-.257 51.471 51.471 0 0 1-3.597 1.498.581.581 0 0 0-.347.756.602.602 0 0 0 .777.338 52.663 52.663 0 0 0 3.556-1.475c.405.404.977.592 1.562.508.777-.113 1.399-.722 1.512-1.48a1.717 1.717 0 0 0-.007-.557 51.91 51.91 0 0 0 7.873-5.235c.343.245.761.362 1.192.332.866-.06 1.565-.713 1.662-1.55a1.726 1.726 0 0 0-.217-1.06A50.454 50.454 0 0 0 38.107 16.8c.177.009.355-.008.53-.052a1.77 1.77 0 0 0 1.358-1.564 1.74 1.74 0 0 0-.543-1.402Zm-9.215-9.717c-.377.008-1.02-.17-1.198-.581-.165-.38.067-.941.385-1.19.211-.166.508-.242.848-.242.548 0 1.21.198 1.81.542-.546.898-1.213 1.457-1.845 1.47Zm1.217 14.69c.332 0 .602.264.602.587 0 .323-.27.586-.602.586a.595.595 0 0 1-.602-.586c0-.323.27-.586.602-.586Zm-11.796 11.02c.332 0 .603.262.603.585 0 .324-.27.587-.602.587a.595.595 0 0 1-.602-.587c0-.323.27-.586.602-.586Zm-9.147 4.57c.332 0 .602.264.602.587 0 .323-.27.586-.602.586a.595.595 0 0 1-.602-.586c0-.323.27-.586.602-.586Zm11.876-11.213a.595.595 0 0 1-.602-.586c0-.323.27-.586.602-.586.332 0 .602.263.602.586 0 .323-.27.586-.602.586Zm8.867-11.37a.595.595 0 0 1-.602-.586c0-.324.27-.587.602-.587.332 0 .602.263.602.587 0 .323-.27.586-.602.586Zm5.49-9.757.392-.72.98 1.062a.191.191 0 0 1-.003.264 4.943 4.943 0 0 0-1.273 2.45l-.22 1.112a5.578 5.578 0 0 0-1.308-.413l.235-.824c.29-1.014.693-2 1.198-2.93Z" fill="#FF7010"/></svg>
